assets/picto-consciente.svg

<svg fill="none" height="313" viewBox="0 0 281 313" width="281" xmlns="http://www.w3.org/2000/svg"><g fill="#000"><path d="M141.3 267c1.4-17.9 3.5-35.8 2.1-53.8-1.7-21.9-3.3-43.8-3.8-65.7-.3-11.3.7-22.6-1.1-33.9-1.3-8.5 2.8-14.1 11.2-16.4 9.1-2.5 18.4-2.3 27.6.3 10.9 3.1 16.2 11.2 18.7 21.4 1 3.9 2.3 6.5 6.2 8.2 16.5 7.4 22.4 21.9 24.1 38.5.6 6 1.9 11.4 4 17.1 5.1 13.3 5.6 27.2-.1 40.8-1.1 2.7-2.9 5.1-2 8.5 3.7 13.2-3.9 22.9-10.4 33-.2.3-.4.5-.7.7-10.2 8.6-19 17.8-22.9 31.4-2.1 7.4-10.2 11-17.6 11.4-16.1.7-29.1-4.6-33.6-21.7-1.6-6.5-2.3-13.1-1.7-19.8zm75.3-23.9c-1-1.6-2-1.4-3-1.4-3.7-.1-7.9-.5-9-4.4-.9-3.3 3-4.7 5.2-6.7 5.2-4.5 8.4-10.1 10-16.8 3.8-16.1-.9-30.2-9.9-43.1-2.5-3.7-4.2-6 .7-8.6 2-1 3-2.7 2.7-4.9-.9-7.6-5.4-13.5-9.9-19.3-3.2-4-7.3-4.9-12.4-4.3-4 .5-6.7-.8-6.5-6.2.6-17.9-5.2-23.4-22.8-23.3-11.1.1-14.5 3.4-12.9 14.7 1.3 9.7.7 19.3 1 28.9.5 14.6 1.7 29.2 2.6 43.8.2 3.4 1.9 4.7 5.3 4.3 2-.2 4-.4 6-.2 6.3.5 11.7-.3 15.1-6.9 1.7-3.2 4.9-5.5 8.7-6.3 2-.5 4.1 0 5.2 2 .9 1.7 0 3.1-1 4.5-1.5 2.1-4.5 3-5 6.1 2.9 3.2 5.9 6.2 8.6 9.5 1.3 1.7 3.7 3.9 1.4 6.1-2.4 2.2-5 .5-7.1-1.3-1.2-1.1-2-2.6-3.1-3.9-.8-1.1-2-2.3-3.3-1.8-7.9 2.9-15.9.5-23.8.9-4.5.2-5.6 2.4-5.4 6.4.3 8 .5 16 .5 24 0 4.2 1.5 6.9 5.3 8.8 4.6 2.3 7.6 6.4 10.7 10.3 1.1 1.4 1.5 3 .3 4.6-.9 1.2-2.3 1.3-3.6 1.1-2.7-.3-5-1.5-7.2-3.1-1.9-1.5-2.8-4.8-6.6-3.8-1.3 4.9-.8 9.9-.5 14.8.2 2.7.9 5.4 0 7.9-2.4 7 .8 12.3 4.8 17.5 8.1 10.5 21.6 8.9 27.5-3 2.4-4.9 3.6-10.1 4-15.4.4-5 2.5-7.6 7.7-6.3 3.3.8 5.7.3 8.1-2.1 6.2-6.7 10.4-14.3 11.6-23.1zM132.3 209c-.9 19.7 1.8 39.2 2.4 58.8.3 9.2-1.5 18-4 26.5-4.8 16.8-23.5 23.3-39.9 14-8.1-4.6-15.6-10.5-16.1-21.3-.1-2.7-1.2-4.3-3.7-5.3-10.1-4.3-13.9-13.4-15.2-23-1.2-9.1-4-16.6-11.7-22-2.1-1.5-4-3.6-5.5-5.7-8.1-11.6-7.1-40.4 2.3-51.2 4.4-5 7.1-10.4 8.1-16.7 1.5-9.7 6.1-17.5 14-23.3 3-2.1 4.4-4.8 4.7-8.3.5-5.7 2.8-11 4.6-16.3 4.4-12.5 17.4-20.6 30.5-19.2 14.6 1.6 22.6 9.5 25 25.3 1 6.9 2.1 13.9 2.1 20.8-.3 22.4 3.6 44.6 2.4 66.9zm-11.2-28v-49.8c0-2.4-.7-4.9-3.3-5.7-4.5-1.4-4-3.9-3-7.7 1.9-7.6-1.4-12.1-9.1-13.4-4-.7-7.9-.5-11.7 1.4-12.4 6.4-18.5 23.9-12.9 36.7.8 1.8 2.3 3.7.3 5.4-1.4 1.3-3 .2-4.6-.4-7.7-3.4-10.2-2.8-14.6 4.1-3.6 5.7-6 12.1-3.1 18.7 1.4 3.1-.2 4-1.6 5.9-3.1 3.9-8.4 5.4-10.7 10.3-3.3 7.1-4.4 14.7-4.1 22.4.4 13.4 4.6 24.9 19.2 29.3 3.7 1.1 2.6 4 2.4 6.6-.8 7.8.4 15.3 3.9 22.3 3.8 7.6 5.1 8.2 13.7 6.7 4-.7 5.7.8 5.4 4.7-.1 1.3-.6 2.6-.9 3.9-2.3 12.4 9.2 23.8 21.6 21.2 5.4-1.1 9.7-4.5 10.5-9.5 1.2-7.2 2.8-14.2 4.7-21.1.7-2.6 1.5-6.5-1.4-8.3-2.8-1.8-4.5 2-6.7 3-.6.3-1.1.8-1.7 1.1-1.9.9-4 1.4-5.6-.2-1.9-2-.1-3.7 1.3-5 2.1-2.1 4.1-4.6 6.7-6 5.3-2.8 6.2-7.2 6.1-12.5-.2-14.6-.3-29.3-.2-43.9 0-4.7-1.1-8.4-5.3-11-7.5-4.5-13.9-10.3-20.3-16.1-3.2-2.9-6.5-5.7-11.5-4.1-2.6.9-5.2-.7-7.6-1.8-3.3-1.4-2.3-3.7-.3-5.4 2.7-2.2 6-2.5 9.5-2.5 2.5 0 5.1 1.9 7.7-.2 0-2.9-.1-5.9 0-8.8.1-1.8 1.3-3.2 3.1-3.5s3.3.6 4.2 2.2c1.9 3.3 2.4 6.9 2.4 10.6.1 3.1.2 5.9 2.9 8.1 4.4 3.4 8.6 7.1 14.6 12.3zM136 28.9c-.5 5.3-1.1 10.6-3.1 15.6-1.1 2.7-2.7 4.6-5.9 4.2-2.8-.4-5.8-1.3-6-4.3-.9-12.8-3.7-25.7 1.6-38.3.3-.6.6-1.2 1-1.7 1.2-2 2.6-4.1 5.4-3.8 3.1.3 4.5 2.7 4.9 5.5.7 7.6 1.4 15.3 2.1 22.8zm138.1 54.8c3 .5 5.8.9 6.7 4 .7 2.5-.6 4.5-2.2 6.2-2.1 2.2-4.8 3.4-7.6 4.5-4.6 1.8-9.5 3.2-13.6 5.9-6.1 4-11.9 2.2-17.9.5-3.1-.9-3.4-2.9-1.8-5.3.9-1.3 2.2-2.5 3.7-3.2 9.2-4.6 18.5-8.7 28.3-11.8 1.4-.6 3.1-.6 4.4-.8zM8.6 79.6c9.1 2.5 19 6 26.3 14.4 1.5 1.8 2.9 4.1 1.5 6.3-1.7 2.7-4.1.9-6.2 0-7.9-3.5-15.7-7-23.6-10.5-.6-.3-1.2-.5-1.8-.9-2.2-1.4-5-2.8-4.1-6 .8-3.2 3.8-3.2 7.9-3.3z"/><path d="M158.7 159.2c-3.4 0-3.7-1.8-2.6-4.5.1-.3.3-.7.5-.8 6.7-4 12.8-8.2 12.4-17.6-.1-2.4 5.1-2.2 5.8 1.1 1.3 5.8 4 8.3 10.1 7.8 2.3-.2 3.3 3.3 1.1 4.1-9.1 3-16.9 10.1-27.3 9.9zm-79.1 86.4c-2.3-.2-4.7-1.2-3.9-4.8.4-1.9 1.2-3.8 2.4-5.4 2.5-3.4 2.5-5.9-1.6-7.9-1.1-.6-2.1-1.6-2.8-2.7-1.1-1.7-2-3.5-.6-5.5 1.2-1.8 3.1-2.4 5.2-2.2 2.4.2 4.2 1.7 5.9 3.3 4.9 4.8 10.3 8.3 17.7 6.6 1.9-.4 4.3-.3 5.1 2 1 2.9-1.5 4.1-3.6 5.1-1.8.9-3.7 1.6-5.6 1.9-5.4.9-10.3 2.4-13.3 7.5-.9 1.5-2.4 2.3-4.9 2.1z"/></g></svg>

<svg width="281" height="313" viewBox="0 0 281 313" fill="none" xmlns="http://www.w3.org/2000/svg">
<path d="M141.3 267C142.7 249.1 144.8 231.2 143.4 213.2C141.7 191.3 140.1 169.4 139.6 147.5C139.3 136.2 140.3 124.9 138.5 113.6C137.2 105.1 141.3 99.5 149.7 97.2C158.8 94.7 168.1 94.9 177.3 97.5C188.2 100.6 193.5 108.7 196 118.9C197 122.8 198.3 125.4 202.2 127.1C218.7 134.5 224.6 149 226.3 165.6C226.9 171.6 228.2 177 230.3 182.7C235.4 196 235.9 209.9 230.2 223.5C229.1 226.2 227.3 228.6 228.2 232C231.9 245.2 224.3 254.9 217.8 265C217.6 265.3 217.4 265.5 217.1 265.7C206.9 274.3 198.1 283.5 194.2 297.1C192.1 304.5 184 308.1 176.6 308.5C160.5 309.2 147.5 303.9 143 286.8C141.4 280.3 140.7 273.7 141.3 267ZM216.6 243.1C215.6 241.5 214.6 241.7 213.6 241.7C209.9 241.6 205.7 241.2 204.6 237.3C203.7 234 207.6 232.6 209.8 230.6C215 226.1 218.2 220.5 219.8 213.8C223.6 197.7 218.9 183.6 209.9 170.7C207.4 167 205.7 164.7 210.6 162.1C212.6 161.1 213.6 159.4 213.3 157.2C212.4 149.6 207.9 143.7 203.4 137.9C200.2 133.9 196.1 133 191 133.6C187 134.1 184.3 132.8 184.5 127.4C185.1 109.5 179.3 104 161.7 104.1C150.6 104.2 147.2 107.5 148.8 118.8C150.1 128.5 149.5 138.1 149.8 147.7C150.3 162.3 151.5 176.9 152.4 191.5C152.6 194.9 154.3 196.2 157.7 195.8C159.7 195.6 161.7 195.4 163.7 195.6C170 196.1 175.4 195.3 178.8 188.7C180.5 185.5 183.7 183.2 187.5 182.4C189.5 181.9 191.6 182.4 192.7 184.4C193.6 186.1 192.7 187.5 191.7 188.9C190.2 191 187.2 191.9 186.7 195C189.6 198.2 192.6 201.2 195.3 204.5C196.6 206.2 199 208.4 196.7 210.6C194.3 212.8 191.7 211.1 189.6 209.3C188.4 208.2 187.6 206.7 186.5 205.4C185.7 204.3 184.5 203.1 183.2 203.6C175.3 206.5 167.3 204.1 159.4 204.5C154.9 204.7 153.8 206.9 154 210.9C154.3 218.9 154.5 226.9 154.5 234.9C154.5 239.1 156 241.8 159.8 243.7C164.4 246 167.4 250.1 170.5 254C171.6 255.4 172 257 170.8 258.6C169.9 259.8 168.5 259.9 167.2 259.7C164.5 259.4 162.2 258.2 160 256.6C158.1 255.1 157.2 251.8 153.4 252.8C152.1 257.7 152.6 262.7 152.9 267.6C153.1 270.3 153.8 273 152.9 275.5C150.5 282.5 153.7 287.8 157.7 293C165.8 303.5 179.3 301.9 185.2 290C187.6 285.1 188.8 279.9 189.2 274.6C189.6 269.6 191.7 267 196.9 268.3C200.2 269.1 202.6 268.6 205 266.2C211.2 259.5 215.4 251.9 216.6 243.1Z" fill="black"/>
<path d="M132.3 209C131.4 228.7 134.1 248.2 134.7 267.8C135 277 133.2 285.8 130.7 294.3C125.9 311.1 107.2 317.6 90.8001 308.3C82.7001 303.7 75.2 297.8 74.7 287C74.6 284.3 73.5 282.7 71 281.7C60.9 277.4 57.1001 268.3 55.8001 258.7C54.6001 249.6 51.8 242.1 44.1 236.7C42 235.2 40.1 233.1 38.6 231C30.5 219.4 31.5001 190.6 40.9001 179.8C45.3001 174.8 48 169.4 49 163.1C50.5 153.4 55.1 145.6 63 139.8C66 137.7 67.4 135 67.7 131.5C68.2 125.8 70.5001 120.5 72.3001 115.2C76.7001 102.7 89.7001 94.6 102.8 96C117.4 97.6 125.4 105.5 127.8 121.3C128.8 128.2 129.9 135.2 129.9 142.1C129.6 164.5 133.5 186.7 132.3 209ZM121.1 181C121.1 162.9 121.1 147 121.1 131.2C121.1 128.8 120.4 126.3 117.8 125.5C113.3 124.1 113.8 121.6 114.8 117.8C116.7 110.2 113.4 105.7 105.7 104.4C101.7 103.7 97.8 103.9 94 105.8C81.6 112.2 75.5 129.7 81.1 142.5C81.9 144.3 83.4001 146.2 81.4001 147.9C80.0001 149.2 78.4001 148.1 76.8001 147.5C69.1001 144.1 66.6 144.7 62.2 151.6C58.6 157.3 56.2 163.7 59.1 170.3C60.5 173.4 58.9 174.3 57.5 176.2C54.4 180.1 49.1001 181.6 46.8001 186.5C43.5001 193.6 42.4 201.2 42.7 208.9C43.1 222.3 47.3001 233.8 61.9001 238.2C65.6001 239.3 64.5001 242.2 64.3001 244.8C63.5001 252.6 64.7 260.1 68.2 267.1C72 274.7 73.3001 275.3 81.9001 273.8C85.9001 273.1 87.6001 274.6 87.3001 278.5C87.2001 279.8 86.7001 281.1 86.4001 282.4C84.1001 294.8 95.6 306.2 108 303.6C113.4 302.5 117.7 299.1 118.5 294.1C119.7 286.9 121.3 279.9 123.2 273C123.9 270.4 124.7 266.5 121.8 264.7C119 262.9 117.3 266.7 115.1 267.7C114.5 268 114 268.5 113.4 268.8C111.5 269.7 109.4 270.2 107.8 268.6C105.9 266.6 107.7 264.9 109.1 263.6C111.2 261.5 113.2 259 115.8 257.6C121.1 254.8 122 250.4 121.9 245.1C121.7 230.5 121.6 215.8 121.7 201.2C121.7 196.5 120.6 192.8 116.4 190.2C108.9 185.7 102.5 179.9 96.1 174.1C92.9 171.2 89.6 168.4 84.6 170C82 170.9 79.4 169.3 77 168.2C73.7 166.8 74.7 164.5 76.7 162.8C79.4 160.6 82.7 160.3 86.2 160.3C88.7 160.3 91.3001 162.2 93.9001 160.1C93.9001 157.2 93.8001 154.2 93.9001 151.3C94.0001 149.5 95.2 148.1 97 147.8C98.8 147.5 100.3 148.4 101.2 150C103.1 153.3 103.6 156.9 103.6 160.6C103.7 163.7 103.8 166.5 106.5 168.7C110.9 172.1 115.1 175.8 121.1 181Z" fill="black"/>
<path d="M136 28.9C135.5 34.2 134.9 39.5 132.9 44.5C131.8 47.2 130.2 49.1 127 48.7C124.2 48.3 121.2 47.4 121 44.4C120.1 31.6 117.3 18.7 122.6 6.09999C122.9 5.49999 123.2 4.90004 123.6 4.40004C124.8 2.40004 126.2 0.299995 129 0.599995C132.1 0.899995 133.5 3.29999 133.9 6.09999C134.6 13.7 135.3 21.4 136 28.9Z" fill="black"/>
<path d="M274.1 83.7C277.1 84.2 279.9 84.6 280.8 87.7C281.5 90.2 280.2 92.2 278.6 93.9C276.5 96.1 273.8 97.3 271 98.4C266.4 100.2 261.5 101.6 257.4 104.3C251.3 108.3 245.5 106.5 239.5 104.8C236.4 103.9 236.1 101.9 237.7 99.5C238.6 98.2 239.9 97 241.4 96.3C250.6 91.7 259.9 87.6 269.7 84.5C271.1 83.9 272.8 83.9 274.1 83.7Z" fill="black"/>
<path d="M8.6 79.6C17.7 82.1 27.6001 85.6 34.9001 94C36.4001 95.8 37.8001 98.1 36.4001 100.3C34.7001 103 32.3 101.2 30.2 100.3C22.3 96.8 14.5 93.3 6.6 89.8C6 89.5 5.40008 89.3 4.80008 88.9C2.60008 87.5 -0.200021 86.1 0.699979 82.9C1.49998 79.7 4.5 79.7 8.6 79.6Z" fill="black"/>
<path d="M158.7 159.2C155.3 159.2 155 157.4 156.1 154.7C156.2 154.4 156.4 154 156.6 153.9C163.3 149.9 169.4 145.7 169 136.3C168.9 133.9 174.1 134.1 174.8 137.4C176.1 143.2 178.8 145.7 184.9 145.2C187.2 145 188.2 148.5 186 149.3C176.9 152.3 169.1 159.4 158.7 159.2Z" fill="black"/>
<path d="M79.6 245.6C77.3 245.4 74.9 244.4 75.7 240.8C76.1 238.9 76.9 237 78.1 235.4C80.6 232 80.6001 229.5 76.5001 227.5C75.4001 226.9 74.4 225.9 73.7 224.8C72.6 223.1 71.7 221.3 73.1 219.3C74.3 217.5 76.2001 216.9 78.3001 217.1C80.7001 217.3 82.5 218.8 84.2 220.4C89.1 225.2 94.5001 228.7 101.9 227C103.8 226.6 106.2 226.7 107 229C108 231.9 105.5 233.1 103.4 234.1C101.6 235 99.7001 235.7 97.8001 236C92.4001 236.9 87.5001 238.4 84.5001 243.5C83.6001 245 82.1 245.8 79.6 245.6Z" fill="black"/>
</svg>
